X:1
T:Title
%%score { ( 1 4 ) | ( 2 3 ) }
L:1/8
M:4/4
K:F
V:1 treble nm="Grand Piano"
V:4 treble 
V:2 bass 
V:3 bass 
V:1
 z4 z2[Q:1/4=100] FG | A2 A2 A3 c | dcAF [EG]2 [DF]G | [CFA]2 [CFc]2 [DFB]2 [CFA]2 | %4
[M:3/4] [CEG]6 |[M:1/4] FG |[M:4/4] A2 A2 A3 c | dcAF [EG]2 [DF]G | %8
 [CA]2 [DFB][DG] [A,CF]2 C-[CG] |[M:3/4] [A,CF]6 |[M:1/4] [CFA]>[CGB] | %11
[M:4/4] [Ac]2- [FA-c-]>[FA-c-] [CAc]2 [CFA]>[FAc] | [Bd]2- [FB-d-]>[FB-d-] [FBd]2 d>d | %13
 [Ac]2 A2 dcAF |[M:7/8] [CEG]2 [=B,FA]2 [CEG]3 |[M:1/4] FG |[M:4/4] A2 A2 A3 c | dcAF [EG]2 [DF]G | %18
 [CA]2 [DFB][DG] [A,CF]2 C-[CG] |[M:7/4] F6 z2 z2 z4 |] %20
V:2
 z4 z2 [F,A,C][F,B,C] | [F,CF]2 [F,CF]2 [F,CF]3 [F,A,F] | [F,B,F][F,A,F][F,CF][F,A,] [C,C]2 z E | %3
 F,2 A,,2 B,,2 F,2 |[M:3/4] C,6 |[M:1/4] [F,A,C][F,B,C] |[M:4/4] [F,CF]2 [F,CF]2 [F,CF]3 [F,A,F] | %7
 [F,B,F][F,A,F][F,CF][F,A,] [C,C]2 z E | F,2 z B, C,2 C,B, |[M:3/4] F,6 |[M:1/4] F,>F, | %11
[M:4/4] F,2 F,>F, F,2 F,>F, | B,2 B,>B, B,2[K:treble] [B,FB]>[B,FB] | %13
 [F,F]2 [F,CF]2 [F,B,F][K:bass][F,A,F][F,CF][F,A,] |[M:7/8] C,2 G,,2 C,3 |[M:1/4] [F,A,C][F,B,C] | %16
[M:4/4] [F,CF]2 [F,CF]2 [F,CF]3 [F,A,F] | [F,B,F][F,A,F][F,CF][F,A,] [C,C]2 z E | %18
 F,2 z B, C,2 C,B, |[M:7/4] [F,A,C]6 z2 z2 z4 |] %20
V:3
 x8 | x8 | z4 z2 [C,C]2 | x8 |[M:3/4] x6 |[M:1/4] x2 |[M:4/4] x8 | z4 z2 [C,C]2 | z2 B,,2 z4 | %9
[M:3/4] x6 |[M:1/4] x2 |[M:4/4] x8 | x6[K:treble] x2 | x5[K:bass] x3 |[M:7/8] x7 |[M:1/4] x2 | %16
[M:4/4] x8 | z4 z2 [C,C]2 | z2 B,,2 z4 |[M:7/4] x14 |] %20
V:4
 x8 | x8 | x8 | x8 |[M:3/4] x6 |[M:1/4] x2 |[M:4/4] x8 | x8 | z4 z2 .[G,E]2 |[M:3/4] x6 | %10
[M:1/4] x2 |[M:4/4] F2 z2 z4 | F2 z2 z4 | x8 |[M:7/8] x7 |[M:1/4] x2 |[M:4/4] x8 | x8 | %18
 z4 z2 .[G,E]2 |[M:7/4] x14 |] %20

